svg/www.svg

<?xml version="1.0" encoding="UTF-8"?>
<svg xmlns="http://www.w3.org/2000/svg" xmlns:xlink="http://www.w3.org/1999/xlink" width="32" height="32" viewBox="0 0 32 32">
<path fill-rule="nonzero" fill="rgb(20.392157%, 59.607846%, 85.882354%)" fill-opacity="1" d="M 16 2.800781 C 10.410156 2.800781 5.644531 6.289062 3.722656 11.199219 L 3.601562 11.199219 C 2.941406 11.199219 2.398438 11.742188 2.398438 12.398438 L 2.398438 19.601562 C 2.398438 20.257812 2.941406 20.800781 3.601562 20.800781 L 3.722656 20.800781 C 5.644531 25.710938 10.410156 29.199219 16 29.199219 C 21.589844 29.199219 26.355469 25.710938 28.277344 20.800781 L 28.398438 20.800781 C 29.058594 20.800781 29.601562 20.257812 29.601562 19.601562 L 29.601562 12.398438 C 29.601562 11.742188 29.058594 11.199219 28.398438 11.199219 L 28.277344 11.199219 C 26.355469 6.289062 21.589844 2.800781 16 2.800781 M 16 3.601562 C 15.78125 3.601562 15.605469 3.78125 15.601562 4 C 15.601562 4.21875 15.78125 4.398438 16 4.398438 C 16.207031 4.386719 16.371094 4.222656 16.378906 4.015625 C 16.386719 3.808594 16.234375 3.628906 16.03125 3.601562 C 21.164062 3.613281 25.539062 6.75 27.414062 11.199219 L 4.585938 11.199219 C 6.460938 6.742188 10.851562 3.601562 16 3.601562 M 13.199219 4 C 13.054688 3.996094 12.917969 4.074219 12.847656 4.199219 C 12.773438 4.324219 12.773438 4.480469 12.847656 4.605469 C 12.921875 4.730469 13.058594 4.804688 13.203125 4.800781 C 13.425781 4.800781 13.605469 4.621094 13.601562 4.398438 C 13.601562 4.175781 13.421875 4 13.199219 4 M 18.800781 4 C 18.640625 4 18.492188 4.097656 18.429688 4.246094 C 18.367188 4.394531 18.402344 4.566406 18.515625 4.683594 C 18.589844 4.757812 18.691406 4.800781 18.800781 4.800781 C 19.019531 4.800781 19.199219 4.625 19.203125 4.402344 C 19.203125 4.179688 19.023438 4 18.800781 4 M 12 5.199219 C 11.789062 5.214844 11.628906 5.390625 11.628906 5.601562 C 11.628906 5.808594 11.789062 5.984375 12 6 C 12.105469 6 12.207031 5.957031 12.28125 5.882812 C 12.355469 5.808594 12.398438 5.707031 12.398438 5.601562 C 12.398438 5.496094 12.359375 5.394531 12.285156 5.316406 C 12.207031 5.242188 12.105469 5.199219 12 5.199219 M 16 5.199219 C 15.785156 5.210938 15.617188 5.386719 15.617188 5.601562 C 15.621094 5.8125 15.785156 5.988281 16 6 C 16.105469 6 16.207031 5.957031 16.28125 5.882812 C 16.355469 5.808594 16.398438 5.707031 16.398438 5.601562 C 16.398438 5.496094 16.359375 5.394531 16.285156 5.316406 C 16.207031 5.242188 16.105469 5.199219 16 5.199219 M 20 5.199219 C 19.785156 5.210938 19.617188 5.386719 19.617188 5.601562 C 19.621094 5.8125 19.785156 5.988281 20 6 C 20.105469 6 20.207031 5.957031 20.28125 5.882812 C 20.355469 5.808594 20.398438 5.707031 20.398438 5.601562 C 20.398438 5.496094 20.359375 5.394531 20.285156 5.316406 C 20.207031 5.242188 20.105469 5.199219 20 5.199219 M 8 6.800781 C 7.851562 6.789062 7.707031 6.863281 7.628906 6.992188 C 7.550781 7.121094 7.550781 7.28125 7.628906 7.410156 C 7.707031 7.539062 7.851562 7.613281 8 7.601562 C 8.214844 7.589844 8.382812 7.417969 8.382812 7.203125 C 8.382812 6.988281 8.214844 6.8125 8 6.800781 M 9.601562 6.800781 C 9.378906 6.800781 9.199219 6.976562 9.199219 7.199219 C 9.199219 7.421875 9.375 7.601562 9.597656 7.605469 C 9.820312 7.605469 10 7.425781 10 7.203125 C 10.003906 6.984375 9.824219 6.800781 9.601562 6.800781 M 11.199219 6.800781 C 10.980469 6.804688 10.800781 6.984375 10.800781 7.203125 C 10.800781 7.308594 10.84375 7.410156 10.917969 7.488281 C 10.992188 7.5625 11.097656 7.601562 11.203125 7.601562 C 11.421875 7.601562 11.601562 7.421875 11.601562 7.203125 C 11.597656 7.097656 11.558594 6.996094 11.480469 6.921875 C 11.40625 6.847656 11.304688 6.804688 11.199219 6.804688 M 12.800781 6.804688 C 12.652344 6.792969 12.507812 6.867188 12.429688 6.996094 C 12.351562 7.121094 12.351562 7.285156 12.429688 7.414062 C 12.503906 7.539062 12.648438 7.613281 12.796875 7.605469 C 13.007812 7.589844 13.171875 7.417969 13.171875 7.207031 C 13.171875 6.996094 13.011719 6.820312 12.800781 6.804688 M 14.398438 6.804688 C 14.25 6.796875 14.105469 6.871094 14.027344 7 C 13.941406 7.144531 13.953125 7.328125 14.0625 7.460938 C 14.171875 7.589844 14.347656 7.640625 14.507812 7.582031 C 14.667969 7.523438 14.773438 7.371094 14.773438 7.203125 C 14.773438 6.992188 14.609375 6.820312 14.398438 6.804688 M 16 6.800781 C 15.789062 6.796875 15.617188 6.960938 15.601562 7.167969 L 15.601562 7.199219 C 15.601562 7.410156 15.761719 7.585938 15.972656 7.601562 L 16 7.601562 C 16.214844 7.59375 16.382812 7.417969 16.382812 7.203125 C 16.382812 6.988281 16.214844 6.8125 16 6.800781 M 17.601562 6.800781 C 17.378906 6.800781 17.199219 6.980469 17.199219 7.199219 C 17.199219 7.421875 17.375 7.601562 17.597656 7.605469 C 17.820312 7.605469 18 7.429688 18 7.207031 C 18.003906 6.984375 17.824219 6.804688 17.601562 6.800781 M 19.199219 6.800781 C 18.980469 6.804688 18.800781 6.984375 18.800781 7.203125 C 18.800781 7.3125 18.84375 7.414062 18.917969 7.488281 C 18.992188 7.5625 19.097656 7.605469 19.203125 7.601562 C 19.421875 7.601562 19.601562 7.421875 19.601562 7.203125 C 19.597656 6.984375 19.417969 6.804688 19.199219 6.804688 M 20.800781 6.804688 C 20.652344 6.792969 20.507812 6.867188 20.429688 6.996094 C 20.351562 7.125 20.351562 7.285156 20.429688 7.414062 C 20.503906 7.542969 20.648438 7.617188 20.796875 7.605469 C 21.007812 7.59375 21.171875 7.417969 21.171875 7.207031 C 21.171875 6.996094 21.011719 6.820312 20.800781 6.804688 M 22.398438 6.804688 C 22.25 6.796875 22.105469 6.871094 22.027344 7 C 21.941406 7.144531 21.953125 7.328125 22.0625 7.460938 C 22.171875 7.59375 22.347656 7.640625 22.507812 7.582031 C 22.667969 7.527344 22.773438 7.375 22.773438 7.203125 C 22.773438 6.992188 22.609375 6.820312 22.398438 6.804688 M 24 6.800781 C 23.851562 6.789062 23.707031 6.863281 23.628906 6.992188 C 23.550781 7.121094 23.550781 7.28125 23.628906 7.410156 C 23.707031 7.539062 23.851562 7.609375 24 7.601562 C 24.214844 7.589844 24.382812 7.414062 24.382812 7.203125 C 24.382812 6.988281 24.214844 6.808594 24 6.800781 M 10.398438 8.398438 C 10.179688 8.40625 10.007812 8.582031 10.007812 8.800781 C 10.011719 9.019531 10.183594 9.195312 10.402344 9.199219 C 10.566406 9.199219 10.710938 9.101562 10.773438 8.949219 C 10.832031 8.800781 10.796875 8.628906 10.683594 8.511719 C 10.605469 8.4375 10.503906 8.398438 10.398438 8.398438 M 16 8.398438 C 15.785156 8.410156 15.617188 8.585938 15.617188 8.800781 C 15.617188 9.011719 15.785156 9.1875 16 9.199219 C 16.105469 9.199219 16.207031 9.15625 16.28125 9.082031 C 16.355469 9.007812 16.398438 8.90625 16.398438 8.800781 C 16.398438 8.695312 16.359375 8.59375 16.285156 8.515625 C 16.207031 8.441406 16.105469 8.398438 16 8.398438 M 21.601562 8.398438 C 21.449219 8.382812 21.300781 8.453125 21.21875 8.582031 C 21.136719 8.714844 21.136719 8.878906 21.21875 9.007812 C 21.296875 9.140625 21.445312 9.214844 21.597656 9.199219 C 21.808594 9.183594 21.972656 9.011719 21.972656 8.800781 C 21.972656 8.589844 21.8125 8.414062 21.601562 8.398438 M 10 10 C 9.78125 10 9.601562 10.179688 9.601562 10.398438 C 9.601562 10.621094 9.777344 10.800781 10 10.800781 C 10.214844 10.789062 10.382812 10.613281 10.382812 10.398438 C 10.378906 10.1875 10.214844 10.011719 10 10 M 16 10 C 15.78125 10 15.601562 10.179688 15.601562 10.398438 C 15.601562 10.621094 15.777344 10.800781 16 10.800781 C 16.214844 10.789062 16.382812 10.613281 16.382812 10.398438 C 16.378906 10.1875 16.214844 10.011719 16 10 M 22 10 C 21.78125 10 21.601562 10.179688 21.601562 10.398438 C 21.601562 10.621094 21.777344 10.800781 22 10.800781 C 22.214844 10.789062 22.382812 10.613281 22.382812 10.398438 C 22.378906 10.1875 22.214844 10.011719 22 10 M 3.601562 12 L 28.398438 12 C 28.625 12 28.800781 12.171875 28.800781 12.398438 L 28.800781 19.601562 C 28.804688 19.710938 28.761719 19.8125 28.683594 19.886719 C 28.609375 19.960938 28.503906 20.003906 28.398438 20 L 3.601562 20 C 3.496094 20.003906 3.390625 19.960938 3.316406 19.886719 C 3.242188 19.8125 3.199219 19.707031 3.199219 19.601562 L 3.199219 12.398438 C 3.199219 12.171875 3.375 12 3.601562 12 M 6 14 L 7.203125 18 L 7.957031 18 L 8.863281 15.167969 L 8.90625 15.167969 L 9.820312 18 L 10.570312 18 L 11.773438 14 L 10.945312 14 L 10.179688 16.976562 L 10.132812 16.976562 L 9.242188 14 L 8.53125 14 L 7.648438 16.976562 L 7.601562 16.976562 L 6.835938 14 Z M 13.113281 14 L 14.3125 18 L 15.070312 18 L 15.976562 15.167969 L 16.023438 15.167969 L 16.933594 18 L 17.6875 18 L 18.886719 14 L 18.058594 14 L 17.292969 16.976562 L 17.25 16.976562 L 16.355469 14 L 15.644531 14 L 14.761719 16.976562 L 14.714844 16.976562 L 13.949219 14 Z M 20.226562 14 L 21.429688 18 L 22.179688 18 L 23.089844 15.167969 L 23.136719 15.167969 L 24.046875 18 L 24.796875 18 L 26 14 L 25.171875 14 L 24.40625 16.976562 L 24.363281 16.976562 L 23.46875 14 L 22.757812 14 L 21.875 16.976562 L 21.828125 16.976562 L 21.0625 14 Z M 12.398438 17.199219 C 12.25 17.195312 12.109375 17.269531 12.035156 17.398438 C 11.960938 17.523438 11.960938 17.683594 12.039062 17.808594 C 12.113281 17.933594 12.253906 18.007812 12.402344 18 C 12.625 18 12.804688 17.820312 12.800781 17.597656 C 12.800781 17.492188 12.757812 17.390625 12.683594 17.3125 C 12.605469 17.238281 12.503906 17.199219 12.398438 17.199219 M 19.601562 17.199219 C 19.453125 17.1875 19.308594 17.261719 19.230469 17.386719 C 19.152344 17.515625 19.152344 17.675781 19.230469 17.804688 C 19.324219 17.957031 19.503906 18.03125 19.679688 17.984375 C 19.851562 17.9375 19.972656 17.78125 19.972656 17.601562 C 19.972656 17.390625 19.8125 17.214844 19.601562 17.199219 M 4.585938 20.800781 L 27.414062 20.800781 C 25.539062 25.257812 21.148438 28.398438 16 28.398438 C 16.21875 28.398438 16.398438 28.21875 16.398438 28 C 16.394531 27.78125 16.21875 27.605469 16 27.601562 C 15.792969 27.613281 15.628906 27.78125 15.621094 27.988281 C 15.613281 28.195312 15.765625 28.371094 15.96875 28.398438 C 10.835938 28.386719 6.460938 25.25 4.585938 20.800781 M 10 21.203125 C 9.789062 21.21875 9.628906 21.394531 9.628906 21.601562 C 9.628906 21.8125 9.789062 21.988281 10 22.003906 C 10.105469 22.003906 10.207031 21.960938 10.28125 21.886719 C 10.359375 21.808594 10.398438 21.707031 10.398438 21.601562 C 10.398438 21.496094 10.355469 21.394531 10.28125 21.320312 C 10.207031 21.246094 10.105469 21.203125 10 21.203125 M 16 21.203125 C 15.789062 21.21875 15.628906 21.394531 15.628906 21.601562 C 15.628906 21.8125 15.789062 21.988281 16 22.003906 C 16.105469 22.003906 16.207031 21.960938 16.28125 21.886719 C 16.359375 21.808594 16.398438 21.707031 16.398438 21.601562 C 16.398438 21.496094 16.355469 21.394531 16.28125 21.320312 C 16.207031 21.246094 16.105469 21.203125 16 21.203125 M 22 21.203125 C 21.789062 21.21875 21.628906 21.394531 21.628906 21.601562 C 21.628906 21.8125 21.789062 21.988281 22 22.003906 C 22.105469 22.003906 22.207031 21.960938 22.28125 21.886719 C 22.359375 21.808594 22.398438 21.707031 22.398438 21.601562 C 22.398438 21.496094 22.355469 21.394531 22.28125 21.320312 C 22.207031 21.246094 22.105469 21.203125 22 21.203125 M 10.398438 22.800781 C 10.175781 22.804688 10 22.984375 10 23.203125 C 10.015625 23.414062 10.191406 23.574219 10.402344 23.574219 C 10.613281 23.574219 10.785156 23.410156 10.800781 23.199219 C 10.796875 22.980469 10.617188 22.804688 10.398438 22.804688 M 16 22.804688 C 15.851562 22.792969 15.707031 22.867188 15.628906 22.996094 C 15.550781 23.125 15.550781 23.285156 15.628906 23.414062 C 15.707031 23.542969 15.851562 23.617188 16 23.605469 C 16.214844 23.59375 16.382812 23.417969 16.382812 23.203125 C 16.382812 22.988281 16.214844 22.816406 16 22.804688 M 21.601562 22.804688 C 21.453125 22.792969 21.308594 22.867188 21.230469 22.996094 C 21.140625 23.140625 21.152344 23.324219 21.257812 23.457031 C 21.367188 23.589844 21.542969 23.640625 21.703125 23.582031 C 21.863281 23.527344 21.972656 23.375 21.972656 23.207031 C 21.972656 22.996094 21.8125 22.820312 21.601562 22.804688 M 8 24.398438 C 7.785156 24.40625 7.617188 24.585938 7.617188 24.800781 C 7.617188 25.011719 7.785156 25.1875 8 25.199219 C 8.105469 25.199219 8.207031 25.15625 8.28125 25.082031 C 8.355469 25.007812 8.398438 24.90625 8.398438 24.800781 C 8.398438 24.695312 8.359375 24.589844 8.28125 24.515625 C 8.207031 24.441406 8.105469 24.398438 8 24.398438 M 9.601562 24.398438 C 9.449219 24.382812 9.300781 24.453125 9.21875 24.582031 C 9.136719 24.714844 9.136719 24.878906 9.21875 25.007812 C 9.296875 25.140625 9.445312 25.214844 9.597656 25.199219 C 9.808594 25.183594 9.972656 25.011719 9.972656 24.800781 C 9.972656 24.589844 9.8125 24.414062 9.601562 24.398438 M 11.199219 24.398438 C 10.976562 24.402344 10.800781 24.582031 10.800781 24.804688 C 10.800781 25.023438 10.984375 25.203125 11.203125 25.203125 C 11.425781 25.203125 11.605469 25.019531 11.601562 24.796875 C 11.601562 24.578125 11.421875 24.398438 11.199219 24.398438 M 12.800781 24.398438 C 12.648438 24.382812 12.5 24.453125 12.417969 24.582031 C 12.335938 24.714844 12.335938 24.878906 12.417969 25.007812 C 12.496094 25.140625 12.644531 25.210938 12.796875 25.199219 C 13.007812 25.183594 13.171875 25.011719 13.171875 24.800781 C 13.171875 24.589844 13.011719 24.414062 12.800781 24.398438 M 14.398438 24.398438 C 14.175781 24.402344 14 24.582031 14 24.804688 C 13.992188 24.953125 14.066406 25.097656 14.195312 25.171875 C 14.324219 25.25 14.484375 25.25 14.613281 25.167969 C 14.738281 25.089844 14.8125 24.945312 14.800781 24.796875 C 14.800781 24.574219 14.617188 24.398438 14.398438 24.398438 M 16 24.398438 C 15.789062 24.402344 15.617188 24.5625 15.601562 24.773438 L 15.601562 24.804688 C 15.601562 25.011719 15.765625 25.183594 15.972656 25.199219 L 16 25.199219 C 16.105469 25.199219 16.207031 25.15625 16.28125 25.082031 C 16.355469 25.007812 16.398438 24.90625 16.398438 24.800781 C 16.398438 24.695312 16.355469 24.59375 16.28125 24.519531 C 16.207031 24.445312 16.105469 24.402344 16 24.402344 M 17.601562 24.402344 C 17.453125 24.390625 17.308594 24.464844 17.230469 24.589844 C 17.152344 24.71875 17.152344 24.878906 17.230469 25.007812 C 17.308594 25.132812 17.449219 25.207031 17.597656 25.199219 C 17.820312 25.199219 18 25.023438 18 24.804688 C 18 24.582031 17.824219 24.402344 17.601562 24.402344 M 19.199219 24.402344 C 19.054688 24.398438 18.917969 24.472656 18.84375 24.601562 C 18.769531 24.726562 18.769531 24.882812 18.847656 25.007812 C 18.921875 25.132812 19.058594 25.207031 19.203125 25.203125 C 19.421875 25.195312 19.59375 25.015625 19.589844 24.800781 C 19.589844 24.582031 19.417969 24.40625 19.199219 24.402344 M 20.800781 24.402344 C 20.652344 24.390625 20.507812 24.464844 20.429688 24.589844 C 20.351562 24.71875 20.351562 24.878906 20.429688 25.003906 C 20.507812 25.132812 20.648438 25.207031 20.796875 25.199219 C 21.015625 25.199219 21.195312 25.023438 21.199219 24.804688 C 21.199219 24.582031 21.019531 24.402344 20.800781 24.402344 M 22.398438 24.402344 C 22.292969 24.402344 22.1875 24.445312 22.113281 24.519531 C 22.039062 24.597656 22 24.699219 22 24.804688 C 22 25.027344 22.179688 25.203125 22.402344 25.203125 C 22.507812 25.203125 22.609375 25.160156 22.6875 25.085938 C 22.761719 25.011719 22.800781 24.90625 22.800781 24.800781 C 22.800781 24.695312 22.757812 24.589844 22.683594 24.515625 C 22.609375 24.441406 22.503906 24.398438 22.398438 24.402344 M 24 24.402344 C 23.785156 24.410156 23.617188 24.585938 23.617188 24.800781 C 23.617188 25.015625 23.785156 25.191406 24 25.203125 C 24.222656 25.203125 24.398438 25.023438 24.398438 24.800781 C 24.398438 24.695312 24.355469 24.59375 24.28125 24.519531 C 24.207031 24.445312 24.105469 24.402344 24 24.402344 M 12 26 C 11.78125 26 11.601562 26.179688 11.601562 26.398438 C 11.601562 26.621094 11.777344 26.800781 12 26.800781 C 12.214844 26.789062 12.382812 26.613281 12.382812 26.398438 C 12.378906 26.1875 12.214844 26.011719 12 26 M 16 26 C 15.78125 26 15.601562 26.179688 15.601562 26.398438 C 15.601562 26.621094 15.777344 26.800781 16 26.800781 C 16.214844 26.789062 16.382812 26.613281 16.382812 26.398438 C 16.378906 26.1875 16.214844 26.011719 16 26 M 20 26 C 19.78125 26 19.601562 26.179688 19.601562 26.398438 C 19.601562 26.621094 19.777344 26.800781 20 26.800781 C 20.214844 26.789062 20.382812 26.613281 20.382812 26.398438 C 20.378906 26.1875 20.214844 26.011719 20 26 M 13.199219 27.199219 C 13.054688 27.195312 12.914062 27.269531 12.835938 27.394531 C 12.761719 27.523438 12.765625 27.679688 12.839844 27.804688 C 12.917969 27.933594 13.054688 28.007812 13.203125 28 C 13.308594 28 13.410156 27.957031 13.488281 27.882812 C 13.5625 27.808594 13.601562 27.703125 13.601562 27.597656 C 13.601562 27.492188 13.558594 27.390625 13.484375 27.3125 C 13.410156 27.238281 13.304688 27.199219 13.199219 27.199219 M 18.800781 27.199219 C 18.648438 27.1875 18.503906 27.261719 18.425781 27.390625 C 18.347656 27.519531 18.347656 27.679688 18.425781 27.804688 C 18.503906 27.933594 18.644531 28.007812 18.796875 28 C 19.003906 27.984375 19.167969 27.8125 19.167969 27.601562 C 19.167969 27.390625 19.007812 27.21875 18.800781 27.199219 M 18.800781 27.199219 "/>
</svg>

<svg role="img" viewBox="0 0 32 32" xmlns="http://www.w3.org/2000/svg"><path d="M16 2.8c-5.59 0-10.355 3.49-12.277 8.4h-.121c-.66 0-1.204.542-1.204 1.198v7.204c0 .656.543 1.199 1.204 1.199h.12C5.646 25.71 10.41 29.199 16 29.199s10.355-3.488 12.277-8.398h.121c.66 0 1.204-.543 1.204-1.2v-7.203c0-.656-.543-1.199-1.204-1.199h-.12C26.354 6.29 21.59 2.801 16 2.801m0 .8a.403.403 0 0 0-.398.399.4.4 0 0 0 .398.398.4.4 0 0 0 .379-.382.404.404 0 0 0-.348-.414c5.133.011 9.508 3.148 11.383 7.597H4.586C6.46 6.742 10.852 3.602 16 3.602M13.2 4a.4.4 0 0 0-.352.2.398.398 0 0 0 .355.6.396.396 0 0 0 .399-.402.4.4 0 0 0-.403-.398m5.602 0a.41.41 0 0 0-.371.246.402.402 0 0 0 .371.555.403.403 0 0 0 .402-.399.4.4 0 0 0-.402-.402M12 5.2a.401.401 0 0 0 0 .8.4.4 0 0 0 .398-.398.4.4 0 0 0-.113-.286A.42.42 0 0 0 12 5.2m4 0a.403.403 0 0 0-.383.403c.004.21.168.386.383.398a.4.4 0 0 0 .398-.398.4.4 0 0 0-.113-.286A.42.42 0 0 0 16 5.2m4 0a.403.403 0 0 0-.383.403c.004.21.168.386.383.398a.4.4 0 0 0 .398-.398.4.4 0 0 0-.113-.286A.42.42 0 0 0 20 5.2M8 6.801a.402.402 0 1 0 0 .8.4.4 0 0 0 .383-.398A.403.403 0 0 0 8 6.801m1.602 0a.4.4 0 0 0-.403.398c0 .223.176.403.399.406.222 0 .402-.18.402-.402a.4.4 0 0 0-.398-.402m1.597 0a.406.406 0 0 0-.398.402c0 .106.043.207.117.285.074.074.18.114.285.114a.4.4 0 0 0 .399-.399.4.4 0 0 0-.122-.281.4.4 0 0 0-.28-.117m1.6 0a.402.402 0 1 0-.004.8.401.401 0 0 0 .005-.8m1.597 0a.4.4 0 1 0-.054.802.4.4 0 0 0 .054-.802M16 6.8a.394.394 0 0 0-.398.367v.031c0 .211.16.387.37.403H16a.397.397 0 0 0 .383-.399A.403.403 0 0 0 16 6.8m1.602 0a.4.4 0 0 0-.403.398c0 .223.176.403.399.406A.4.4 0 0 0 18 7.207a.4.4 0 0 0-.398-.406m1.597 0a.406.406 0 0 0-.398.402.394.394 0 0 0 .402.399.4.4 0 0 0 .399-.399.406.406 0 0 0-.403-.398m1.602 0a.402.402 0 1 0-.004.8.401.401 0 0 0 .004-.8m1.597 0a.4.4 0 1 0-.054.802.4.4 0 0 0 .054-.802M24 6.8a.402.402 0 1 0 0 .8.4.4 0 0 0 0-.8M10.398 8.398a.4.4 0 0 0-.39.403.4.4 0 0 0 .394.398.4.4 0 0 0 .371-.25.41.41 0 0 0-.09-.437.4.4 0 0 0-.285-.114m5.602 0a.403.403 0 0 0-.383.403c0 .21.168.386.383.398a.4.4 0 0 0 .398-.398.4.4 0 0 0-.113-.285.42.42 0 0 0-.285-.118m5.602 0a.4.4 0 0 0-.383.61.39.39 0 0 0 .379.191.401.401 0 0 0 .004-.8M10 10a.4.4 0 0 0 0 .8.403.403 0 0 0 .383-.402A.405.405 0 0 0 10 10m6 0a.4.4 0 0 0 0 .8.403.403 0 0 0 .383-.402A.405.405 0 0 0 16 10m6 0a.4.4 0 0 0 0 .8.403.403 0 0 0 .383-.402A.405.405 0 0 0 22 10M3.602 12h24.796c.227 0 .403.172.403.398v7.204a.38.38 0 0 1-.117.285.4.4 0 0 1-.286.113H3.602a.4.4 0 0 1-.286-.113.4.4 0 0 1-.117-.285v-7.204c0-.226.176-.398.403-.398M6 14l1.203 4h.754l.906-2.832h.043L9.82 18h.75l1.203-4h-.828l-.765 2.977h-.047L9.243 14H8.53l-.883 2.977h-.046L6.836 14Zm7.113 0 1.2 4h.757l.907-2.832h.046l.91 2.832h.755l1.199-4h-.828l-.766 2.977h-.043L16.355 14h-.71l-.883 2.977h-.047L13.949 14Zm7.114 0 1.203 4h.75l.91-2.832h.047l.91 2.832h.75L26 14h-.828l-.766 2.977h-.043L23.47 14h-.711l-.883 2.977h-.047L21.063 14Zm-7.829 3.2a.4.4 0 0 0-.363.198.4.4 0 0 0 .004.41c.074.126.215.2.363.192.223 0 .403-.18.399-.402a.42.42 0 0 0-.117-.285.4.4 0 0 0-.286-.114m7.204 0a.4.4 0 0 0-.372.188.402.402 0 0 0 .45.597.401.401 0 0 0-.078-.785M4.586 20.801h22.828C25.54 25.258 21.148 28.398 16 28.398a.4.4 0 0 0 .398-.398.405.405 0 0 0-.398-.398.4.4 0 0 0-.031.797C10.836 28.386 6.46 25.25 4.586 20.8m5.414.402a.401.401 0 0 0 0 .8.4.4 0 0 0 .281-.683.4.4 0 0 0-.281-.117m6 0a.401.401 0 0 0 0 .8.4.4 0 0 0 .281-.683.4.4 0 0 0-.281-.117m6 0a.401.401 0 0 0 0 .8.4.4 0 0 0 .281-.683.4.4 0 0 0-.281-.117M10.398 22.8a.403.403 0 0 0-.398.402.401.401 0 0 0 .8-.004.403.403 0 0 0-.402-.394m5.602 0a.402.402 0 1 0 0 .8.403.403 0 0 0 .383-.402.4.4 0 0 0-.383-.398m5.602 0a.4.4 0 0 0-.372.191.397.397 0 0 0 .473.586.4.4 0 0 0-.101-.777M8 24.398a.4.4 0 0 0 0 .801.4.4 0 0 0 .398-.398.4.4 0 0 0-.398-.402m1.602 0a.4.4 0 0 0-.383.61.39.39 0 0 0 .379.19.401.401 0 0 0 .004-.8m1.597 0a.404.404 0 0 0-.398.406.4.4 0 1 0 .8-.008.4.4 0 0 0-.402-.399m1.602 0a.4.4 0 0 0-.383.61.4.4 0 0 0 .379.191.401.401 0 0 0 .004-.8m1.597 0a.404.404 0 0 0-.398.406.4.4 0 0 0 .195.367c.13.078.29.078.418-.004a.4.4 0 0 0 .188-.371.4.4 0 0 0-.403-.399m1.602 0a.404.404 0 0 0-.398.375v.032a.4.4 0 0 0 .37.394H16a.4.4 0 0 0 0-.797m1.602 0a.4.4 0 0 0-.372.188.402.402 0 0 0 .368.61.398.398 0 1 0 .004-.798m1.597 0a.4.4 0 0 0-.355.2.39.39 0 0 0 .004.406.398.398 0 0 0 .742-.207.396.396 0 0 0-.39-.399m1.6 0a.395.395 0 0 0-.371.602.4.4 0 0 0 .368.195.403.403 0 0 0 .402-.394.4.4 0 0 0-.398-.403m1.597 0a.4.4 0 0 0-.285.118.4.4 0 0 0-.113.285c0 .222.18.398.402.398a.42.42 0 0 0 .285-.117.41.41 0 0 0-.004-.57.4.4 0 0 0-.285-.114m1.602 0a.397.397 0 0 0-.383.399c0 .215.168.39.383.402a.4.4 0 0 0 0-.8M12 26a.4.4 0 0 0 0 .8.403.403 0 0 0 .383-.402A.405.405 0 0 0 12 26m4 0a.4.4 0 0 0 0 .8.403.403 0 0 0 .383-.402A.405.405 0 0 0 16 26m4 0a.4.4 0 0 0 0 .8.403.403 0 0 0 .383-.402A.405.405 0 0 0 20 26m-6.8 1.2a.42.42 0 0 0-.364.195.406.406 0 0 0 .367.605.42.42 0 0 0 .285-.117.4.4 0 0 0 .114-.285.42.42 0 0 0-.118-.285.4.4 0 0 0-.285-.114m5.602 0a.401.401 0 1 0-.004.801.4.4 0 0 0 .371-.398.404.404 0 0 0-.367-.403m0 0" fill="rgb(20.392157%, 59.607846%, 85.882354%)"/></svg>
